X:1
T:Dona Nobis pacem
T:Dona nobis pacem
T:Edvard Grieg
%%score [ 1 2 3 4 ]
L:1/8
Q:1/4=80
M:4/4
K:Eb
V:1 treble nm="Sopran"
V:2 treble nm="Alt"
V:3 treble-8 nm="Tenor"
V:4 bass nm="Bass"
V:1
"^Andante espressivo\n" z8 | z8 | z8 | z8 | z8 | z8 |!p! c3 c =A2 B2 | (^F2 G2 e2 dc | %8
w: ||||||Do- na no- bis|pa- * * * *|
 =B2) z2 g3 g | d2 e2 (=B2 c2 | a2 gf =e2) z2 | _g2 (f_e) =d4- | d8- | d3 d =A2 B2 | %14
w: cem, do- na|no- bis pa- *|* * * cem,|pa- cem, _ pa-||* cem, do- na|
 ^F2 G2 (e2 dc) | =B2 z2 (_dG) (c_B) | A8- | (ADG) F =E F G A | (GFeF- F A2) (G/F/) | %19
w: no- bis pa- * *|cem, do- * na _|pa-|* * * cem, do- na no- bis|pa- * * * * * cem, _|
 (E2 _A) G (^FD) (Gd) | (cde=B cB/=A/ ^f2) | g2 z2 z4 | z8 | z!mf! c2 d (=ed/c/ f) (_d/c/) | %24
w: do- * na no- * bis _|pa- * * * * * * *|cem.||Do- na no- * * * bis _|
 (Bc_d=A B_A/G/) =e2 | z2 f f (g4- | gf/e/ _d) c (Bc/d/ c) B | c2- c (B/A/) G A B (c/_d/) | %28
w: pa- * * * * * * cem,|do- na no-|* * * * bis pa- * * * cem|do- * na _ no- bis pa- cem, _|
 c =d e =B (c_A/G/ ^F2) | G2 z2 z4 | z8 | z8 | z8 |!f! g3 g d2 e2 | (=B2 c2 a2) (gf) | %35
w: do- na no- bis pa- * * *|cem.||||Do- na no- bis|pa- * * cem, _|
 (=e c2 d ed/c/ fe/f/ | g2 f) _e (e3 d/c/) | =B2 z2 !>!g3 !>!g | !>!d2 !>!e2 (!>!=B2 !>!c2 | %39
w: pa- * * * * * * * *|* * cem, pa- * *|cem, Do- na|no- bis pa- *|
 a2) (gf) (f=e _e2) | d2 z2 z4 | z2 g3/2 g/ (^f=e/d/ g) (_e/d/) | (cde) =B (c=B/=A/ !>!B) !>!c | %43
w: * cem, _ pa- * *|cem.|Do- na no- * * * bis _|pa- * * cem, pa- * * * cem,|
!pp! (G2 _A) G F3 E | (D2 A2 GC)!>(! (D>C)!>)! |!pp! C3 c"^cresc." G2 A2 | (=E2 F2 _d2 cB) | %47
w: do- * na no- bis|pa- * * * cem, _|do- na no- bis|pa- * * * *|
 =A c2 =d (=ed/c/ f) (d/c/) | (=Bcd_e fg ag/f/) | =e z!<(! E3/2 E/ G2 F2!<)! | %50
w: cem, do- na no- * * * bis _|pa- * * * * * * * *|cem, do- na no- bis|
!ff! B2 A2 z2!pp! F F |!<(! G2"^ritard." C2!<)!!>(! (D2 F>E)!>)! | %52
w: pa- cem, do- na|no- bis pa- * *|
!pp!!<(!!>(! !fermata!=E8!<)!!>)! |] %53
w: cem.|
V:2
 z8 | z8 | z8 | z8 |!p! G3 G D2 E2 | (=B,2 C2 A2) (GF) | (=E2 F) E _E4- | E2 (DC) (B,=A,) =A2 | %8
w: ||||Do- na no- bis|pa- * * cem, _|do- * na no-|* bis _ pa- * cem,|
 (G2 D) E F2 G2 | (AGFE DF) (ED) | C2 =B,2 z4 | z4 B3 B | ^F2 G2 (D2 =E2 | ^F2) G2 z4 | %14
w: do- * na no- bis|pa- * * * * * cem, _|pa- cem.|Do- na|no- bis pa- *|* cem,|
 z4 c2 (B=A) | (_AD) (GF) ((F2 =E_D) | C4- CF) (=B,C) | D2 (_D2- DC) D (C/=D/) | (E4 D C2) =B, | %19
w: Do- na _|no- * bis _ pa- * *|* * * cem, _|do- na _ _ no- bis _|pa- * * cem,|
 C6 D2 | E3 =F G2 =A2 |!mf! G3 G D2 E2 | (=B,2 C2 A2) GF | (=E2 B) A G (F/=E/) F F | %24
w: do- na|no- bis pa- cem,|do- na no- bis|pa- * * cem, _|do- * na no- bis _ pa- cem,|
 (G2 _E2 =E2) G2 | (F c2) _c (BA/G/ _d) (=c/B/) | A3 A =E2 F2 | (C2 _D3 F) _F2 | %28
w: pa- * * cem,|do- * na no- * * * bis _|pa- cem, do- na|pa- * * cem,|
 E =F _G =D (E C2 D/C/) | =B,2 z2 z4 | z8 |!f! c3 c =A2 B2 | (^F2 G2 e2) (dc) | (=B3 c) d z z2 | %34
w: do- na no- bis pa- * * *|cem.||Do- na no- bis|pa- * * cem, _|pa- * cem.|
 z8 | c3 c _B2 c2 | (c=B/_B/ A) G (GA/G/ ^F) F | (G2 DE F2) G2 | (AG) (FE) (DFE) D | %39
w: |Do- na no- bis|pa- * * * cem, pa- * * * cem,|do- * * * na|no- * bis _ pa- * * cem,|
 C =B, z2 !>!c3 !>!c | !>!=A2 !>!B2 (^F2 G2 | e2 d) c c2 d2 | (=A2 G/F/) E/D/ G ^F =F E | %43
w: pa- cem, do- na|no- bis pa- *|* * cem, pa- cem,|do- * * na _ no- bis pa- cem,|
!pp! D2 C2 D2 C2 | C4- C3!>(! =B,!>)! | z C2!pp! D"^cresc." (=ED/C/) F (_D/C/) | %46
w: do- na no- bis|pa- * cem,|do- na no- * * * bis _|
 (B,C_D=A, B,_A,/G,/) =E2 | F2 _A2 G2 F2 | (F3 E DC =B,2) | C z!<(! C3/2 C/ C2 C2!<)! | %50
w: pa- * * * * * * cem,|do- na no- bis|pa- * * * *|cem, do- na no- bis|
!ff! C2 C2 z2!pp! C C |!<(! C2 C2!<)!!>(! (C2 =B,2)!>)! |!pp!!<(!!>(! !fermata!C8!<)!!>)! |] %53
w: pa- cem, do- na|no- bis pa- *|cem.|
V:3
 z8 | z8 |!p! c3 c =A2 B2 | (^F2 G2 e2) (dc) | (B2 =B4) c2 | (F2 A2 Ae) _d2 | (c6 B2 | %7
w: ||Do- na no- bis|pa- * * cem, _|do- * na|no- * * * bis|pa- *|
 c2 B=A G^F ^f2) | g z z2 z4 | z8 | f2 (ed) (_d2 c) B | (B=A_dc) B z z2 | B3 B ^F2 (GB) | %13
w: |cem.||Do- na _ no- * bis|pa- * * * cem.|Do- na no- bis _|
 c2 d2 (ed) (cB) | (=Ac) (BA) G2 ^F2 | G8- | (GCFE) D2 d c | (=B2 _B2- BA) (=EF) | %18
w: pa- cem, do- * na _|no- * bis _ pa- cem,|pa-|* * * * cem, do- na|no- * * * bis _|
 (G A2) =A (BFD) G | z2 F E D2 D2 | (=A2 Bc/d/) c2 z2 | z!mf! G2 =A (=BA/G/ c) (_A/G/) | %22
w: pa- * cem, pa- * * cem,|do- na no- bis|pa- * * * cem.|Do- na no- * * * bis _|
 (FGA=E F_E/D/ =B2) | c3 c G2 A2 | (=E2 F2 _d2 cA/B/) | c2 z2 z4 | z4 G3 G | =E2 F2 z4 | z8 | %29
w: pa- * * * * * * cem,|do- na no- bis|pa- * * * * *|cem.|Do- na|pa- cem.||
!f! g3 g d2 e2 | (=B2 c2 a2) (gf) | e3 f (g^f) g2 | (cded cB _A2 | G) G2 =A (=BA/G/ c) (_A/G/) | %34
w: Do- na no- bis|pa- * * cem, _|do- na no- * bis|pa- * * * * * *|cem, do- na no- * * * bis _|
 (FGA) =E (F_d/c/ =B2) | c z z2 c3 c | (G_dc) c c3 (=d/e/) | !>!G3 !>!G !>!D2 !>!E2 | %38
w: pa- * * cem, pa- * * *|cem. Do- na|no- * * bis pa- cem, _|do- na no- bis|
 (!>!=B,2 !>!C2 !>!A2) (!>!G!>!F) | (ED) A2 G2 (AG) | (^F=E/D/ G) (e/d/) (cde) =B | %41
w: pa- * * cem, _|do- * na no- bis _|pa- * * * cem, _ do- * * na|
 (cgf) e (d=e/^f/) g z | z4!f!"^dim." G3 G |!pp! D2 E2!<(! (=B,2 C2!<)! | %44
w: no- * * bis pa- * * cem.|Do- na|no- bis pa- *|
 A2) (GF)!>(! (EAF) G!>)! |!pp! (c2"^cresc." =B2 _B2) _A2 | z8 | c2 =B2 _B2 =A2 | (_A2- AG FE D2) | %49
w: * cem, _ pa- * * cem,|pa- * * cem.||Do- na no- bis|pa- * * * * *|
 =E z!<(! G3/2 G/ =E2 F2!<)! |!ff! =E2 F2 z2!pp! D D |!<(! E2 A2!<)!!>(! (F2 A>G)!>)! | %52
w: cem, do- na no- bis|pa- cem, do- na|no- bis pa- * *|
!pp!!<(!!>(! !fermata!G8!<)!!>)! |] %53
w: cem.|
V:4
!p! G,3 G, D,2 E,2 | (=B,,2 C,2 A,2) (G,F,) | (E,2 A,G, ^F,D,G,) E, | (C,D,E,) =B,, (C,=A,,) ^F,2 | %4
w: Do- na no- bis|pa- * * cem, *|do- * * * * * na|no- * * bis pa- * cem,|
 (G,4 =F,2) E,2 | (_D,2 C,4) B,,2- | B,,2 A,, G,, ^F,,2 G,,2 | =A,,2 B,,2 z4 | G,3 G, D,2 E,2 | %9
w: do- * na|no- * bis,|_ do- na no- bis|pa- cem.|Do- na no- bis|
 (=B,,2 C,2 A,2) G,F, | (E,D, G,2) C,2 z2 | F,,4 B,, z z2 | z4 D,3 D, | =A,,2 B,,2 ^F,,2 G,,2 | %14
w: pa- * * cem, _|pa- * * cem,|pa- cem.|Do- na|no- bis pa- cem,|
 E,2 (D,C,) (B,,=A,, D,2) | G,,2 z2 z4 | z8 | z8 | z8 |!mf! C,3 C, =A,,2 B,,2 | %20
w: do- na _ pa- * *|cem.||||Do- na no- bis|
 (^F,,2 G,,2 E,2 D,C,) | B,,2 z2 z4 | z8 | z4 C,4- | C,2 C,2 G,,4 | A,,4 =E,,4 | F,,4 (_D,4 | %27
w: pa- * * * *|cem.||Do-|* na no-|bis pa-|cem, pa-|
 C,2) B,,2 (B,,A,,G,,) G,, | A,,8 | G,,!f! G,2 =A, (=B,A,/G,/ C) (_A,/G,/) | %30
w: * cem, pa- * * cem,|pa-|cem, do- na no- * * * bis _|
 (F,G,A,=E, F,_E,/D,/) =B,2 | (C C,2) D, (E,D,C,) B,, | (_A,,2 G,,3 G,) F,2 | F,6 E,2 | %34
w: pa- * * * * * * cem,|do- * na no- * * bis|pa- * * cem,|do- na|
 D,2 C,2 z4 | !>!C,3 !>!C, !>!G,,2 !>!A,,2 | (=E,,2 F,,G,, A,,2) A,,2 | G,,8- | G,,8- | G,,8 | %40
w: pa- cem.|Do- na no- bis|pa- * * * cem,|pa-|||
 G,,2 z2 z4 | !>!C,3 !>!C, !>!=A,,2 !>!B,,2 | (!>!^F,,2 !>!G,,2 !>!E,2) !>!D,!pp!!>!C, | %43
w: cem.|Do- na no- bis|pa- * * cem, _|
 (B,,2 A,,4) (A,,G,,) | F,,2 D,,2!>(! G,,3 G,,!>)! |!pp!"^cresc." C,8- | C,8- | C,8- | C,8 | %49
w: do- * na _|no- bis pa- cem,|pa-||||
 C, z!<(! C,3/2 C,/ B,,2 A,,2!<)! |!ff! G,,2 F,,2 z2!pp! A,, A,, |!<(! G,,2 G,,2!<)!!>(! G,,4!>)! | %52
w: cem, do- na no- bis|pa- cem, do- na|no- bis pa-|
!pp!!<(!!>(! !fermata!C,8!<)!!>)! |] %53
w: cem.|

